storage/app/icons/phosphoricons/bold/paint-roller-bold.svg

<svg xmlns="http://www.w3.org/2000/svg" fill="currentColor" viewBox="0 0 256 256"><path d="M232 84h-20V64a20 20 0 0 0-20-20H52a20 20 0 0 0-20 20v20H16a12 12 0 0 0 0 24h16v20a20 20 0 0 0 20 20h140a20 20 0 0 0 20-20v-20h16v47l-97.5 27.8A20.09 20.09 0 0 0 116 202v30a12 12 0 0 0 24 0v-26.95l97.5-27.85A20.09 20.09 0 0 0 252 158v-54a20 20 0 0 0-20-20m-44 40H56V68h132Z"/></svg>

<svg xmlns="http://www.w3.org/2000/svg" viewBox="0 0 256 256" fill="currentColor"><path d="M232,84H212V64a20,20,0,0,0-20-20H52A20,20,0,0,0,32,64V84H16a12,12,0,0,0,0,24H32v20a20,20,0,0,0,20,20H192a20,20,0,0,0,20-20V108h16V155L130.5,182.8A20.09,20.09,0,0,0,116,202v30a12,12,0,0,0,24,0V205.05l97.5-27.85A20.09,20.09,0,0,0,252,158V104A20,20,0,0,0,232,84Zm-44,40H56V68H188Z"/></svg>
